X: 18854
T: In And Out The Windows
R: polka
M: 2/4
K: Fmajor
A|CF A>B|AG z G|CE G>A|GF z||
A|CF A>B|AG z G|c>c BG|F3||

